packages/kaspersky-hexa-ui-icons/src/iconsSVGs/64x42/FlagVg.svg

<svg xmlns="http://www.w3.org/2000/svg" width="64" height="42" fill="none" viewBox="0 0 64 42"><g clip-path="url(#a)"><rect width="64" height="42" fill="#fff" rx="5"/><path fill="#07319c" d="M0 0h64v42H0z"/><g clip-path="url(#b)"><path fill="#008339" fill-rule="evenodd" d="M37.8602 20.3v-7.0018c0-1.5464 1.2536-2.7982 2.8-2.7982h8.4c1.5464 0 2.8 1.2518 2.8 2.7982V20.3c0 7-7 9.8-7 9.8s-7-2.8-7-9.8" clip-rule="evenodd"/><mask id="c" width="15" height="21" x="37" y="10" maskUnits="userSpaceOnUse" style="mask-type:luminance"><path fill="#fff" fill-rule="evenodd" d="M37.8602 20.3v-7.0018c0-1.5464 1.2536-2.7982 2.8-2.7982h8.4c1.5464 0 2.8 1.2518 2.8 2.7982V20.3c0 7-7 9.8-7 9.8s-7-2.8-7-9.8" clip-rule="evenodd"/></mask><g mask="url(#c)"><path fill="#ffd033" fill-rule="evenodd" d="M47.6759 16.0998c.766-.0083 1.3844-.6319 1.3844-1.3999 0-.7732-.6268-1.4-1.4-1.4s-1.4.6268-1.4 1.4c0 .768.6184 1.3916 1.3844 1.3999-.766.0084-1.3844.632-1.3844 1.4 0 .7732.6268 1.4 1.4 1.4s1.4-.6268 1.4-1.4c0-.768-.6184-1.3916-1.3844-1.4M43.4604 14.7c0 .7667-.6162 1.3894-1.3804 1.3999.7642.0105 1.3804.6332 1.3804 1.3999 0 .7732-.6268 1.4-1.4 1.4s-1.4-.6268-1.4-1.4c0-.7667.6162-1.3894 1.3804-1.3999-.7641-.0105-1.3804-.6332-1.3804-1.3999 0-.7732.6268-1.4 1.4-1.4s1.4.6268 1.4 1.4m0 5.6001c0 .7681-.6185 1.3917-1.3846 1.3999.7661.0083 1.3846.6319 1.3846 1.3999 0 .7732-.6268 1.4-1.4 1.4s-1.4-.6268-1.4-1.4c0-.768.6185-1.3916 1.3846-1.3999-.7661-.0082-1.3846-.6318-1.3846-1.3999 0-.7732.6268-1.4 1.4-1.4s1.4.6268 1.4 1.4m4.1999 4.1998c.7732 0 1.4-.6268 1.4-1.4 0-.768-.6185-1.3916-1.3846-1.3999.7661-.0082 1.3846-.6318 1.3846-1.3999 0-.7732-.6268-1.4-1.4-1.4s-1.4.6268-1.4 1.4c0 .7681.6185 1.3917 1.3846 1.3999-.7661.0083-1.3846.6319-1.3846 1.3999 0 .7732.6268 1.4 1.4 1.4" clip-rule="evenodd"/><ellipse cx="45" cy="19" fill="#fff" rx="1" ry="4"/></g></g><path fill="#ffd033" d="M36.4601 27.3004c0 2.6702 3.8245 4.2 8.4 4.2s8.4-1.5298 8.4-4.2c0-.7732-.6268-1.4-1.4-1.4s-1.4.6268-1.4 1.4c0 .0268-.3394.3477-1.1702.68-1.1279.4512-2.7168.72-4.4298.72s-3.302-.2688-4.4298-.72c-.8309-.3323-1.1702-.6532-1.1702-.68 0-.7732-.6268-1.4-1.4-1.4s-1.4.6268-1.4 1.4"/><path fill="#042c90" d="M0 0h26.7134v21H0z"/><mask id="d" width="27" height="21" x="0" y="0" maskUnits="userSpaceOnUse" style="mask-type:alpha"><path fill="#0a17a7" d="M0 0h26.7133v21H0z"/></mask><g mask="url(#d)"><mask id="e" width="35" height="27" x="-4" y="-3" fill="#000" maskUnits="userSpaceOnUse"><path fill="#fff" d="M-4-3h35v27H-4z"/><path fill-rule="evenodd" d="M10.3885 9 0 0h1.484l10.3886 7.5h2.9682L26.7134 0v1.5L16.3248 9v3l10.3886 9h-1.2582a.7.7 0 0 1-.4091-.1322L14.8408 13.5h-2.9682L0 21v-1.5L10.3885 12z" clip-rule="evenodd"/></mask><path fill="#ff2e3b" fill-rule="evenodd" d="M10.3885 9 0 0h1.484l10.3886 7.5h2.9682L26.7134 0v1.5L16.3248 9v3l10.3886 9h-1.2582a.7.7 0 0 1-.4091-.1322L14.8408 13.5h-2.9682L0 21v-1.5L10.3885 12z" clip-rule="evenodd"/><path stroke="#fff" stroke-width="3" d="M10.3885 9 0 0h1.484l10.3886 7.5h2.9682L26.7134 0v1.5L16.3248 9v3l10.3886 9h-1.2582a.7.7 0 0 1-.4091-.1322L14.8408 13.5h-2.9682L0 21v-1.5L10.3885 12z" clip-rule="evenodd" mask="url(#e)"/><path fill="#fff" fill-rule="evenodd" d="M0 7.5v6h10.3885v7.6024c0 .7719.6258 1.3976 1.3976 1.3976h3.1411c.7719 0 1.3976-.6257 1.3976-1.3976V13.5h10.4751c.7718 0 1.3975-.6257 1.3975-1.3976V8.8976c0-.7719-.6257-1.3976-1.3975-1.3976H16.3248V0h-5.9363v7.5z" clip-rule="evenodd"/><path fill="#ff2e3b" fill-rule="evenodd" d="M0 9h11.8726V0h2.9682v9h11.8726v3H14.8408v9h-2.9682v-9H0z" clip-rule="evenodd"/></g></g><defs><clipPath id="a"><rect width="64" height="42" fill="#fff" rx="5"/></clipPath><clipPath id="b"><path fill="#fff" d="M37.8602 10.5h14.7v21h-14.7z"/></clipPath></defs></svg>

<svg width="64" height="42" viewBox="0 0 64 42" fill="none" xmlns="http://www.w3.org/2000/svg">
<g clip-path="url(#clip0_37941_2378)">
<rect width="64" height="42" rx="5" fill="white"/>
<rect width="64" height="42" fill="#07319C"/>
<g clip-path="url(#clip1_37941_2378)">
<path fill-rule="evenodd" clip-rule="evenodd" d="M37.8602 20.3C37.8602 18.0031 37.8602 15.2876 37.8602 13.2982C37.8602 11.7518 39.1138 10.5 40.6602 10.5H49.0602C50.6066 10.5 51.8602 11.7518 51.8602 13.2982C51.8602 15.2876 51.8602 18.0031 51.8602 20.3C51.8602 27.3 44.8602 30.1 44.8602 30.1C44.8602 30.1 37.8602 27.3 37.8602 20.3Z" fill="#008339"/>
<mask id="mask0_37941_2378" style="mask-type:luminance" maskUnits="userSpaceOnUse" x="37" y="10" width="15" height="21">
<path fill-rule="evenodd" clip-rule="evenodd" d="M37.8602 20.3C37.8602 18.0031 37.8602 15.2876 37.8602 13.2982C37.8602 11.7518 39.1138 10.5 40.6602 10.5H49.0602C50.6066 10.5 51.8602 11.7518 51.8602 13.2982C51.8602 15.2876 51.8602 18.0031 51.8602 20.3C51.8602 27.3 44.8602 30.1 44.8602 30.1C44.8602 30.1 37.8602 27.3 37.8602 20.3Z" fill="white"/>
</mask>
<g mask="url(#mask0_37941_2378)">
<path fill-rule="evenodd" clip-rule="evenodd" d="M47.6759 16.0998C48.4419 16.0915 49.0603 15.4679 49.0603 14.6999C49.0603 13.9267 48.4335 13.2999 47.6603 13.2999C46.8871 13.2999 46.2603 13.9267 46.2603 14.6999C46.2603 15.4679 46.8787 16.0915 47.6447 16.0998C46.8787 16.1082 46.2603 16.7318 46.2603 17.4998C46.2603 18.273 46.8871 18.8998 47.6603 18.8998C48.4335 18.8998 49.0603 18.273 49.0603 17.4998C49.0603 16.7318 48.4419 16.1082 47.6759 16.0998ZM43.4604 14.7C43.4604 15.4667 42.8442 16.0894 42.08 16.0999C42.8442 16.1104 43.4604 16.7331 43.4604 17.4998C43.4604 18.273 42.8336 18.8998 42.0604 18.8998C41.2872 18.8998 40.6604 18.273 40.6604 17.4998C40.6604 16.7331 41.2766 16.1104 42.0408 16.0999C41.2767 16.0894 40.6604 15.4667 40.6604 14.7C40.6604 13.9268 41.2872 13.3 42.0604 13.3C42.8336 13.3 43.4604 13.9268 43.4604 14.7ZM43.4604 20.3001C43.4604 21.0682 42.8419 21.6918 42.0758 21.7C42.8419 21.7083 43.4604 22.3319 43.4604 23.0999C43.4604 23.8731 42.8336 24.4999 42.0604 24.4999C41.2872 24.4999 40.6604 23.8731 40.6604 23.0999C40.6604 22.3319 41.2789 21.7083 42.045 21.7C41.2789 21.6918 40.6604 21.0682 40.6604 20.3001C40.6604 19.5269 41.2872 18.9001 42.0604 18.9001C42.8336 18.9001 43.4604 19.5269 43.4604 20.3001ZM47.6603 24.4999C48.4335 24.4999 49.0603 23.8731 49.0603 23.0999C49.0603 22.3319 48.4418 21.7083 47.6757 21.7C48.4418 21.6918 49.0603 21.0682 49.0603 20.3001C49.0603 19.5269 48.4335 18.9001 47.6603 18.9001C46.8871 18.9001 46.2603 19.5269 46.2603 20.3001C46.2603 21.0682 46.8788 21.6918 47.6449 21.7C46.8788 21.7083 46.2603 22.3319 46.2603 23.0999C46.2603 23.8731 46.8871 24.4999 47.6603 24.4999Z" fill="#FFD033"/>
<ellipse cx="44.8602" cy="18.9001" rx="1.4" ry="4.2" fill="white"/>
</g>
</g>
<path d="M36.4601 27.3004C36.4601 29.9706 40.2846 31.5004 44.8601 31.5004C49.4356 31.5004 53.2601 29.9706 53.2601 27.3004C53.2601 26.5272 52.6333 25.9004 51.8601 25.9004C51.0869 25.9004 50.4601 26.5272 50.4601 27.3004C50.4601 27.3272 50.1207 27.6481 49.2899 27.9804C48.162 28.4316 46.5731 28.7004 44.8601 28.7004C43.1471 28.7004 41.5581 28.4316 40.4303 27.9804C39.5994 27.6481 39.2601 27.3272 39.2601 27.3004C39.2601 26.5272 38.6333 25.9004 37.8601 25.9004C37.0869 25.9004 36.4601 26.5272 36.4601 27.3004Z" fill="#FFD033"/>
<rect width="26.7134" height="21" fill="#042C90"/>
<mask id="mask1_37941_2378" style="mask-type:alpha" maskUnits="userSpaceOnUse" x="0" y="0" width="27" height="21">
<rect width="26.7133" height="21" fill="#0A17A7"/>
</mask>
<g mask="url(#mask1_37941_2378)">
<mask id="path-10-outside-1_37941_2378" maskUnits="userSpaceOnUse" x="-4" y="-3" width="35" height="27" fill="black">
<rect fill="white" x="-4" y="-3" width="35" height="27"/>
<path fill-rule="evenodd" clip-rule="evenodd" d="M10.3885 9L0 0H1.48408L11.8726 7.5H14.8408L26.7134 0V1.5L16.3248 9V12L26.7134 21H25.4552C25.3083 21 25.1652 20.9537 25.0461 20.8678L14.8408 13.5H11.8726L0 21V19.5L10.3885 12V9Z"/>
</mask>
<path fill-rule="evenodd" clip-rule="evenodd" d="M10.3885 9L0 0H1.48408L11.8726 7.5H14.8408L26.7134 0V1.5L16.3248 9V12L26.7134 21H25.4552C25.3083 21 25.1652 20.9537 25.0461 20.8678L14.8408 13.5H11.8726L0 21V19.5L10.3885 12V9Z" fill="#FF2E3B"/>
<path fill-rule="evenodd" clip-rule="evenodd" d="M10.3885 9L0 0H1.48408L11.8726 7.5H14.8408L26.7134 0V1.5L16.3248 9V12L26.7134 21H25.4552C25.3083 21 25.1652 20.9537 25.0461 20.8678L14.8408 13.5H11.8726L0 21V19.5L10.3885 12V9Z" stroke="white" stroke-width="2.7952" mask="url(#path-10-outside-1_37941_2378)"/>
<path fill-rule="evenodd" clip-rule="evenodd" d="M0 7.5V13.5H10.3885V21.1024C10.3885 21.8743 11.0143 22.5 11.7861 22.5H14.9272C15.6991 22.5 16.3248 21.8743 16.3248 21.1024V13.5H26.7999C27.5717 13.5 28.1974 12.8743 28.1974 12.1024V8.8976C28.1974 8.12573 27.5717 7.5 26.7999 7.5H16.3248V0H10.3885V7.5H0Z" fill="white"/>
<path fill-rule="evenodd" clip-rule="evenodd" d="M0 9H11.8726V7.5V0H14.8408V7.5V9H26.7134V12H14.8408V13.5V21H11.8726V13.5V12H0V9Z" fill="#FF2E3B"/>
</g>
</g>
<defs>
<clipPath id="clip0_37941_2378">
<rect width="64" height="42" rx="5" fill="white"/>
</clipPath>
<clipPath id="clip1_37941_2378">
<rect width="14.7" height="21" fill="white" transform="translate(37.8602 10.5)"/>
</clipPath>
</defs>
</svg>
